svg/emoji_u1f98f.svg

<?xml version="1.0" encoding="UTF-8" standalone="no"?>
<svg
   width="128"
   height="128"
   style="enable-background:new 0 0 128 128;"
   version="1.1"
   id="svg15"
   sodipodi:docname="emoji_u1f98f.svg"
   inkscape:version="1.3 (0e150ed6c4, 2023-07-21)"
   xmlns:inkscape="http://www.inkscape.org/namespaces/inkscape"
   xmlns:sodipodi="http://sodipodi.sourceforge.net/DTD/sodipodi-0.dtd"
   xmlns="http://www.w3.org/2000/svg"
   xmlns:svg="http://www.w3.org/2000/svg">
  <defs
     id="defs15">
    <clipPath
       id="clipPath1">
      <rect
         id="rect1"
         height="128"
         width="128"
         x="0"
         y="0" />
    </clipPath>
  </defs>
  <sodipodi:namedview
     id="namedview15"
     pagecolor="#ffffff"
     bordercolor="#000000"
     borderopacity="0.25"
     inkscape:showpageshadow="2"
     inkscape:pageopacity="0.0"
     inkscape:pagecheckerboard="0"
     inkscape:deskcolor="#d1d1d1"
     inkscape:zoom="4.0546875"
     inkscape:cx="66.836224"
     inkscape:cy="76.331407"
     inkscape:window-width="1366"
     inkscape:window-height="697"
     inkscape:window-x="-8"
     inkscape:window-y="-8"
     inkscape:window-maximized="1"
     inkscape:current-layer="svg15" />
  <style
     type="text/css"
     id="style1">&#10;.st0{clip-path:url(#SVGID_2_);fill:#79A3AC;}&#10;.st1{clip-path:url(#SVGID_2_);fill:#55787C;}&#10;.st2{clip-path:url(#SVGID_2_);fill:#65878D;}&#10;.st3{clip-path:url(#SVGID_2_);fill:#2F2F2F;}&#10;.st4{clip-path:url(#SVGID_2_);fill:#C2CBCE;}&#10;  </style>
  <path
     style="fill:#6593a2;fill-opacity:1;stroke-width:35.9055;stroke-linecap:round"
     d="m 81.371607,102.57021 c 0,0 5.371484,0.69666 8.27038,-0.60958 2.898897,-1.30624 2.216804,-5.399124 2.131542,-10.275757 C 91.688264,86.808242 91.26196,80.27704 91.26196,80.27704 l -9.71983,-1.044993 z"
     id="path24" />
  <path
     id="path25"
     style="fill:#2f2f2f;fill-opacity:1;stroke-width:35.9055;stroke-linecap:round"
     d="m 81.54127,79.232511 -0.169971,23.331929 c 0,0 0.499978,0.0651 1.254733,0.11842 0.01253,8.8e-4 0.01788,9.8e-4 0.03056,0.002 0.05109,0.004 0.103125,0.006 0.156603,0.01 1.382483,0.0882 3.51752,0.12644 5.322591,-0.2731 -0.386936,-4.08637 -1.079999,-8.534185 -1.1898,-13.731686 -0.06824,-3.23034 -0.137313,-4.459365 3.162616,-4.459365 0.928582,0 1.232617,0.01853 1.38269,0.03819 -0.119401,-2.297016 -0.229175,-3.991464 -0.229175,-3.991464 z" />
  <g
     id="g24"
     transform="matrix(0.97781381,0,0,0.97781381,0.01986298,1.4199218)"
     style="stroke-width:1.02269">
    <g
       id="g20"
       style="stroke-width:0.980655"
       transform="matrix(1.042865,0,0,1.042865,-3.7666663,-12.382346)">
      <g
         id="g19"
         style="stroke-width:0.980655">
        <path
           style="fill:#6593a2;fill-opacity:1;stroke-width:35.2109;stroke-linecap:round"
           d="m 96.643158,73.423865 c 0,0 3.375912,-10.255566 12.898012,-10.255566 10.81714,0 15.86779,5.965291 15.86779,16.041333 0,5.287123 -2.97225,13.400104 -2.97225,13.400104 l -2.93101,-1.452815 c 0,0 2.38662,-6.175122 2.38662,-11.455683 0,-6.798355 -3.75447,-12.196995 -12.1059,-12.196995 -9.59928,0 -13.143262,5.919622 -13.143262,5.919622 z"
           id="path11"
           sodipodi:nodetypes="cssccssc" />
        <path
           d="m 117.76105,97.785543 c -0.17878,1.606119 -0.62277,2.121346 1.47103,2.158812 3.05408,0.04304 4.8818,-1.077569 6.15777,-3.861125 1.09887,-2.406557 0.98267,-5.17994 -0.86097,-7.208627 -1.88271,-2.076143 -4.15224,-1.640616 -5.92996,0.295471 -2.51522,2.743544 -0.47964,5.441659 -0.83787,8.615469 z"
           style="fill:#2f2f2f;stroke-width:0.980655"
           id="path1-5"
           sodipodi:nodetypes="cccccc" />
      </g>
      <path
         d="m 69.601793,35.55953 c -22.693335,0 -35.712158,13.941914 -35.712158,51.191205 0,19.027695 -0.123791,17.425035 -0.256426,21.207625 -0.11464,3.26939 -1.611141,10.23782 1.996524,12.31806 4.460897,2.57223 13.59553,3.06187 16.759893,-1.6943 1.350739,-2.03022 1.621027,-4.51509 1.621027,-6.86881 0,-2.70174 0.155705,-7.26853 0.155705,-9.97943 0,-1.14479 -0.0955,-2.698968 0.223521,-3.901013 0.307714,-1.159447 1.427077,-1.978881 3.318898,-1.978881 1.0349,0 2.708357,-0.03959 3.743801,0.05541 3.223783,0.295769 3.280476,2.395637 3.241675,7.226554 -0.02422,3.01593 0.507437,9.59391 0.26987,12.60705 -0.311936,3.9564 3.342764,5.40429 6.877966,5.57749 3.754905,0.18397 8.419159,-0.22441 11.741067,-2.11561 3.482797,-1.9828 2.126086,-5.11043 1.996543,-8.3433 -0.09028,-2.25303 -0.454686,-7.65542 -0.626141,-9.89944 -0.139935,-1.831483 -0.296035,-4.600489 -0.198119,-6.441003 0.08528,-1.603071 0.207983,-3.675597 2.240554,-4.34597 1.438467,-0.474428 4.991745,-0.458348 6.506935,-0.343033 3.683416,0.280329 3.283641,9.32856 3.348021,10.500816 0.155421,2.82997 -0.255467,4.87081 2.362869,6.59406 3.114832,2.05002 8.298352,1.514 11.667802,0.52203 6.11867,-1.80134 4.07957,-7.05229 4.37772,-11.860141 0.28797,-4.643632 0.12405,-6.486695 0.12405,-16.522076 0,-29.382794 -12.88757,-43.507291 -45.781597,-43.507291 z"
         id="path2-1"
         sodipodi:nodetypes="ssssssssssssssssssssssssss"
         style="fill:#6593a2;fill-opacity:1;stroke-width:0.980655" />
    </g>
    <path
       id="path17"
       style="fill:#2f2f2f;fill-opacity:1;stroke-width:1.02269"
       d="m 62.601562,25.076172 c -3.590467,0.450141 -6.896135,1.321209 -9.90625,2.652344 -2.546419,1.748542 -4.742288,3.172335 -5.152343,2.957031 -1.601979,1.157699 -3.090046,2.495175 -4.462891,4.021484 -0.01542,0.01714 -0.03149,0.03359 -0.04687,0.05078 -0.793965,0.886867 -1.546593,1.839553 -2.261719,2.855469 -0.04671,0.06641 -0.09426,0.132246 -0.140625,0.199219 -0.668189,0.964269 -1.301358,1.988207 -1.898437,3.070312 -0.106137,0.192575 -0.210589,0.387621 -0.314453,0.583985 -0.237302,0.448107 -0.467953,0.906994 -0.69336,1.375 -0.143028,0.297324 -0.285623,0.59497 -0.423828,0.900391 -0.148325,0.327396 -0.292791,0.661275 -0.435547,0.998046 -0.09752,0.230313 -0.192206,0.464499 -0.287109,0.699219 -0.204415,0.504965 -0.403446,1.021338 -0.595703,1.546875 -0.127871,0.350004 -0.254499,0.701347 -0.376953,1.060547 -0.106084,0.310747 -0.208536,0.62568 -0.310547,0.943359 -0.139405,0.43473 -0.274498,0.876428 -0.40625,1.324219 -0.103157,0.350118 -0.204281,0.704333 -0.302734,1.0625 -0.137481,0.500866 -0.27214,1.008683 -0.400391,1.525391 -0.0706,0.284012 -0.139236,0.568586 -0.207031,0.857422 -0.158606,0.676688 -0.311916,1.361109 -0.455078,2.064453 -0.03963,0.194388 -0.07679,0.395356 -0.115235,0.591797 -0.119248,0.610338 -0.232075,1.231076 -0.339844,1.861328 -0.04385,0.256035 -0.08891,0.510184 -0.130859,0.769531 -0.125697,0.778373 -0.243079,1.570515 -0.351562,2.378906 -0.0276,0.205347 -0.05164,0.415747 -0.07813,0.623047 -0.08997,0.705331 -0.174951,1.42234 -0.251953,2.150391 -0.0228,0.215228 -0.0467,0.427303 -0.06836,0.644531 -0.02678,0.268976 -0.04724,0.550217 -0.07227,0.822266 -0.08841,0.959411 -0.16588,1.937572 -0.232422,2.935546 -0.02937,0.441249 -0.055,0.889048 -0.08008,1.337891 -0.04942,0.883031 -0.09035,1.782616 -0.123046,2.695313 -0.01599,0.447078 -0.03296,0.889508 -0.04492,1.34375 -0.03064,1.161473 -0.04861,2.347849 -0.05273,3.55664 -6.34e-4,0.186696 -0.0059,0.364904 -0.0059,0.552735 0,4.424426 -0.0084,7.466752 -0.01953,10.052734 3.563853,-0.656135 6.675823,-2.381445 8.396484,-6.257813 0.831507,-1.8925 1.161315,-2.566276 2.78125,-3.953124 1.842184,-1.565697 3.737103,-2.914311 5.636719,-4.337891 6.864707,-5.151073 14.495759,-14.935905 14.132812,-23.642578 -0.160971,-3.861524 -1.309835,-8.238614 -2.730468,-12.267578 -0.849513,-2.409245 0.818267,-3.849856 2.228515,-6.820313 0.724675,-1.526409 0.780752,-3.871907 0.599609,-5.785156 z" />
    <g
       id="g22"
       style="stroke-width:0.980655"
       transform="matrix(1.042865,0,0,1.042865,-3.7666663,-12.382346)">
      <path
         d="m 34.156718,34.427826 c -3.734551,0.267162 -6.712618,1.615995 -9.694483,3.358334 -2.625412,1.53526 -4.819224,3.669941 -6.365645,6.282001 -3.070141,5.194274 -3.472119,11.53229 -3.690279,17.423453 -0.08513,2.389916 0.296354,5.485566 -0.44635,7.730723 -1.022209,3.060996 -3.610526,5.681582 -4.346754,8.833145 -0.7310939,3.068568 0.481742,7.204886 2.666344,9.43303 2.645297,2.693986 6.810769,5.054919 10.562518,5.515803 6.356446,0.778009 13.664142,0.823335 16.622828,-6.106524 0.78059,-1.847091 1.091985,-2.504752 2.612722,-3.858324 1.729376,-1.528129 3.508176,-2.84493 5.291466,-4.234351 C 53.813423,73.777639 60.05046,66.753947 59.711095,58.256126 59.558625,54.487315 57.739118,46.217715 51.536094,40.505645 45.333072,34.793574 39.239843,34.064188 34.156718,34.427826 Z"
         style="fill:#6593a2;stroke-width:0.980654"
         id="path1-0-0"
         sodipodi:nodetypes="sccccccccccczs" />
      <path
         d="m 16.748123,81.571277 c 0.43711,0.172799 0.858088,0.438324 1.203886,0.74086 0.681224,0.60443 1.308762,1.403409 0.969689,2.340533 -0.920764,2.598644 -3.548391,0.124439 -4.106351,-1.295068 -0.81908,-2.081299 0.581846,-2.338406 1.932776,-1.786325 z m 14.885896,2.960752 c 1.382975,0.03337 2.807287,0.746191 2.02837,2.228904 -0.755603,1.442495 -3.226758,1.99797 -4.694132,1.813593 -1.302027,-0.163749 -2.55252,-0.824181 -1.910409,-2.284101 0.693239,-1.61297 3.099182,-1.787161 4.576171,-1.758396 z"
         fill="#2f2f2f"
         id="path7-7"
         style="stroke-width:0.980654" />
      <g
         id="g21"
         style="stroke-width:0.980655">
        <path
           style="fill:#6593a2;stroke-width:35.2109;stroke-linecap:round"
           d="m 19.730466,24.329765 c -3.341903,0.760766 -4.822155,7.036997 -3.641666,12.22268 1.18051,5.185684 6.101076,9.762377 8.521061,9.211478 2.419975,-0.550899 5.210019,-6.398041 3.97705,-11.814198 -1.232958,-5.41616 -6.551708,-10.144627 -8.856445,-9.61996 z"
           id="path8-8" />
        <path
           style="fill:#6593a2;stroke-width:35.2109;stroke-linecap:round"
           d="m 57.650456,25.90866 c 3.495173,1.264889 4.250495,8.217327 2.287752,13.640866 -1.962763,5.423543 -7.869502,9.69239 -10.400485,8.776438 -2.530983,-0.915956 -4.753243,-7.581423 -2.703264,-13.246009 2.05,-5.664589 8.405532,-10.043631 10.815997,-9.171295 z"
           id="path9-4" />
      </g>
      <path
         d="m 35.585655,55.727463 c -1.471708,1.908533 -1.326359,4.781316 0.321653,6.424376 1.670037,1.623593 4.21341,1.416236 5.68384,-0.471546 1.46198,-1.919549 1.317264,-4.802704 -0.341766,-6.43603 -1.659029,-1.633327 -4.212765,-1.426613 -5.663727,0.483206 z"
         style="fill:#2f2f2f;stroke-width:0.980654"
         id="path1-6" />
      <g
         id="g18"
         style="stroke-width:0.980655">
        <path
           class="st4"
           d="m 23.568853,59.484956 c -1.446319,1.640293 -2.750132,1.960517 -3.251641,1.988827 -0.16717,0.0095 -0.307614,-0.03196 -0.421335,-0.124186 -0.493658,-0.356862 -1.974632,-1.427445 -3.134906,-3.108024 -1.409205,-2.070986 -3.112939,-4.815884 -2.317457,-5.403356 0.795484,-0.587474 2.677888,0.953692 6.283852,1.746479 1.750841,0.433865 2.912593,1.445104 3.244885,1.825095 0.332292,0.37999 0.754181,1.737254 -0.403398,3.075165 z"
           clip-path="url(#SVGID_2_)"
           id="path11-1"
           style="fill:#ffffff;fill-opacity:1;stroke-width:0.980653"
           sodipodi:nodetypes="csccscsc" />
        <path
           id="path15"
           clip-path="url(#SVGID_2_)"
           style="fill:#ffffff;fill-opacity:1;stroke-width:0.980653"
           class="st4"
           d="m 4.8452276,57.516236 c -0.3203756,0.05282 -0.4414468,0.633141 -0.3398438,1.583984 0.2680713,2.50872 1.3616217,5.869977 2.7949219,8.892578 1.4863082,3.134386 3.1069073,5.448557 5.9257813,7.470704 1.247355,0.894802 3.664867,0.130319 5.683594,-2.109375 2.018726,-2.239695 1.503644,-5.710466 0.417968,-6.439454 C 18.363403,66.267221 16.702055,66.334051 12.966321,64.500611 9.230588,62.667171 8.190319,62.16639 6.3745245,59.102173 5.6846408,57.93797 5.1656032,57.463421 4.8452276,57.516236 Z"
           sodipodi:nodetypes="sssssssss" />
      </g>
    </g>
  </g>
</svg>

<?xml version="1.0" encoding="UTF-8" standalone="no"?>
<svg
   width="128"
   height="128"
   style="enable-background:new 0 0 128 128;"
   version="1.1"
   id="svg15"
   sodipodi:docname="emoji_u1f98f.svg"
   inkscape:version="1.3 (0e150ed6c4, 2023-07-21)"
   xmlns:inkscape="http://www.inkscape.org/namespaces/inkscape"
   xmlns:sodipodi="http://sodipodi.sourceforge.net/DTD/sodipodi-0.dtd"
   xmlns="http://www.w3.org/2000/svg"
   xmlns:svg="http://www.w3.org/2000/svg">
  <defs
     id="defs15">
    <clipPath
       id="clipPath1">
      <rect
         id="rect1"
         height="128"
         width="128"
         x="0"
         y="0" />
    </clipPath>
  </defs>
  <sodipodi:namedview
     id="namedview15"
     pagecolor="#ffffff"
     bordercolor="#000000"
     borderopacity="0.25"
     inkscape:showpageshadow="2"
     inkscape:pageopacity="0.0"
     inkscape:pagecheckerboard="0"
     inkscape:deskcolor="#d1d1d1"
     inkscape:zoom="2.867097"
     inkscape:cx="57.5495"
     inkscape:cy="80.394907"
     inkscape:window-width="1366"
     inkscape:window-height="697"
     inkscape:window-x="-8"
     inkscape:window-y="-8"
     inkscape:window-maximized="1"
     inkscape:current-layer="svg15" />
  <style
     type="text/css"
     id="style1">&#10;.st0{clip-path:url(#SVGID_2_);fill:#79A3AC;}&#10;.st1{clip-path:url(#SVGID_2_);fill:#55787C;}&#10;.st2{clip-path:url(#SVGID_2_);fill:#65878D;}&#10;.st3{clip-path:url(#SVGID_2_);fill:#2F2F2F;}&#10;.st4{clip-path:url(#SVGID_2_);fill:#C2CBCE;}&#10;  </style>
  <g
     id="g24">
    <g
       id="g20"
       style="stroke-width:0.958898"
       transform="matrix(1.042865,0,0,1.042865,-3.7666663,-12.382346)">
      <g
         id="g19"
         style="stroke-width:0.958898">
        <path
           style="fill:#6593a2;fill-opacity:1;stroke-width:34.4297;stroke-linecap:round"
           d="m 92.941456,68.889836 c 0,0 3.375912,-10.255566 12.898014,-10.255566 10.81714,0 15.86779,5.965291 15.86779,16.041333 0,5.287123 -2.97225,13.400104 -2.97225,13.400104 L 115.804,86.622892 c 0,0 2.38662,-6.175122 2.38662,-11.455683 0,-6.798355 -3.75447,-12.196995 -12.1059,-12.196995 -9.599278,0 -13.143264,5.919622 -13.143264,5.919622 z"
           id="path11"
           sodipodi:nodetypes="cssccssc" />
        <path
           d="m 114.05935,93.251514 c -0.17878,1.606119 -0.62277,2.121346 1.47103,2.158812 3.05408,0.04304 4.8818,-1.077569 6.15777,-3.861125 1.09887,-2.406557 0.98267,-5.17994 -0.86097,-7.208627 -1.88271,-2.076143 -4.15224,-1.640616 -5.92996,0.295471 -2.51522,2.743544 -0.47964,5.441659 -0.83787,8.615469 z"
           style="fill:#2f2f2f;stroke-width:0.958898"
           id="path1-5"
           sodipodi:nodetypes="cccccc" />
      </g>
      <path
         d="m 69.601793,35.55953 c -22.693335,0 -35.712158,13.941914 -35.712158,51.191205 0,19.027695 -0.119062,17.425205 -0.256426,21.207625 -0.10991,3.26955 -1.611885,10.23911 1.996524,12.31806 4.460152,2.57352 13.591086,3.05891 16.759893,-1.6943 1.34629,-2.03317 1.621027,-4.51509 1.621027,-6.86881 0,-2.70174 0.155705,-7.26853 0.155705,-9.97943 0,-1.14479 -0.430442,-3.269542 0.430451,-4.167065 0.51287,-0.540347 1.190586,-0.412129 1.840829,-0.412129 1.0349,0 2.088112,-0.109901 3.123012,-0.210644 5.824754,-0.595295 5.348518,2.188857 5.843076,6.310148 0.357184,2.99481 -0.20149,9.47571 -0.439603,12.48881 -0.31139,3.95644 3.342804,5.40348 6.877966,5.57749 3.754944,0.18316 8.416565,-0.22897 11.741067,-2.11561 3.480197,-1.98736 2.124756,-5.11038 1.996543,-8.3433 -0.09161,-2.25298 -0.274756,-8.01036 -0.448773,-10.25418 -0.137373,-1.831675 -0.467075,-3.654198 -0.375487,-5.495038 0.09161,-1.602722 -0.265595,-4.386878 1.767572,-5.055442 1.437869,-0.476237 3.049745,0 4.54256,-0.28391 2.198032,-0.40297 2.042337,9.387667 2.106443,10.55994 0.155695,2.82995 -0.256435,4.87228 2.362869,6.59406 3.113861,2.05149 8.297517,1.51114 11.667807,0.52203 6.11783,-1.8042 4.08467,-7.05198 4.37772,-11.860143 0.29307,-4.643313 0.34361,-7.824626 0.29127,-17.859871 C 111.70363,45.50532 92.295137,35.55953 69.601793,35.55953 Z"
         id="path2-1"
         sodipodi:nodetypes="zscccsscsccccccccccccccsz"
         style="fill:#6593a2;fill-opacity:1;stroke-width:0.958898" />
    </g>
    <path
       id="path17"
       style="fill:#2f2f2f;fill-opacity:1;stroke-width:1"
       d="M 62.601562 25.076172 C 59.011095 25.526313 55.705427 26.397381 52.695312 27.728516 C 50.148893 29.477058 47.953024 30.900851 47.542969 30.685547 C 45.94099 31.843246 44.452923 33.180722 43.080078 34.707031 C 43.064662 34.724171 43.04859 34.740625 43.033203 34.757812 C 42.239238 35.644679 41.48661 36.597365 40.771484 37.613281 C 40.724776 37.679694 40.677228 37.745527 40.630859 37.8125 C 39.96267 38.776769 39.329501 39.800707 38.732422 40.882812 C 38.626285 41.075387 38.521833 41.270433 38.417969 41.466797 C 38.180667 41.914904 37.950016 42.373791 37.724609 42.841797 C 37.581581 43.139121 37.438986 43.436767 37.300781 43.742188 C 37.152456 44.069584 37.00799 44.403463 36.865234 44.740234 C 36.767719 44.970547 36.673028 45.204733 36.578125 45.439453 C 36.37371 45.944418 36.174679 46.460791 35.982422 46.986328 C 35.854551 47.336332 35.727923 47.687675 35.605469 48.046875 C 35.499385 48.357622 35.396933 48.672555 35.294922 48.990234 C 35.155517 49.424964 35.020424 49.866662 34.888672 50.314453 C 34.785515 50.664571 34.684391 51.018786 34.585938 51.376953 C 34.448457 51.877819 34.313798 52.385636 34.185547 52.902344 C 34.114949 53.186356 34.046311 53.47093 33.978516 53.759766 C 33.81991 54.436454 33.6666 55.120875 33.523438 55.824219 C 33.483808 56.018607 33.446646 56.219575 33.408203 56.416016 C 33.288955 57.026354 33.176128 57.647092 33.068359 58.277344 C 33.024507 58.533379 32.979448 58.787528 32.9375 59.046875 C 32.811803 59.825248 32.694421 60.61739 32.585938 61.425781 C 32.558337 61.631128 32.534296 61.841528 32.507812 62.048828 C 32.417846 62.754159 32.332861 63.471168 32.255859 64.199219 C 32.233061 64.414447 32.209159 64.626522 32.1875 64.84375 C 32.160722 65.112726 32.140265 65.393967 32.115234 65.666016 C 32.026821 66.625427 31.949354 67.603588 31.882812 68.601562 C 31.853443 69.042811 31.827811 69.49061 31.802734 69.939453 C 31.753311 70.822484 31.712386 71.722069 31.679688 72.634766 C 31.663701 73.081844 31.646726 73.524274 31.634766 73.978516 C 31.604121 75.139989 31.586157 76.326365 31.582031 77.535156 C 31.581397 77.721852 31.576172 77.90006 31.576172 78.087891 C 31.576172 82.512317 31.567822 85.554643 31.556641 88.140625 C 35.120494 87.48449 38.232464 85.75918 39.953125 81.882812 C 40.784632 79.990312 41.11444 79.316536 42.734375 77.929688 C 44.576559 76.363991 46.471478 75.015377 48.371094 73.591797 C 55.235801 68.440724 62.866853 58.655892 62.503906 49.949219 C 62.342935 46.087695 61.194071 41.710605 59.773438 37.681641 C 58.923925 35.272396 60.591705 33.831785 62.001953 30.861328 C 62.726628 29.334919 62.782705 26.989421 62.601562 25.076172 z " />
    <g
       id="g22"
       style="stroke-width:0.958898"
       transform="matrix(1.042865,0,0,1.042865,-3.7666663,-12.382346)">
      <path
         d="m 34.156718,34.427826 c -3.734551,0.267162 -6.712618,1.615995 -9.694483,3.358334 -2.625412,1.53526 -4.819224,3.669941 -6.365645,6.282001 -3.070141,5.194274 -3.472119,11.53229 -3.690279,17.423453 -0.08513,2.389916 0.296354,5.485566 -0.44635,7.730723 -1.022209,3.060996 -3.610526,5.681582 -4.346754,8.833145 -0.7310939,3.068568 0.481742,7.204886 2.666344,9.43303 2.645297,2.693986 6.810769,5.054919 10.562518,5.515803 6.356446,0.778009 13.664142,0.823335 16.622828,-6.106524 0.78059,-1.847091 1.091985,-2.504752 2.612722,-3.858324 1.729376,-1.528129 3.508176,-2.84493 5.291466,-4.234351 C 53.813423,73.777639 60.05046,66.753947 59.711095,58.256126 59.558625,54.487315 57.739118,46.217715 51.536094,40.505645 45.333072,34.793574 39.239843,34.064188 34.156718,34.427826 Z"
         style="fill:#6593a2;stroke-width:0.958897"
         id="path1-0-0"
         sodipodi:nodetypes="sccccccccccczs" />
      <path
         d="m 16.748123,81.571277 c 0.43711,0.172799 0.858088,0.438324 1.203886,0.74086 0.681224,0.60443 1.308762,1.403409 0.969689,2.340533 -0.920764,2.598644 -3.548391,0.124439 -4.106351,-1.295068 -0.81908,-2.081299 0.581846,-2.338406 1.932776,-1.786325 z m 14.885896,2.960752 c 1.382975,0.03337 2.807287,0.746191 2.02837,2.228904 -0.755603,1.442495 -3.226758,1.99797 -4.694132,1.813593 -1.302027,-0.163749 -2.55252,-0.824181 -1.910409,-2.284101 0.693239,-1.61297 3.099182,-1.787161 4.576171,-1.758396 z"
         fill="#2f2f2f"
         id="path7-7"
         style="stroke-width:0.958897" />
      <g
         id="g21"
         style="stroke-width:0.958898">
        <path
           style="fill:#6593a2;stroke-width:34.4297;stroke-linecap:round"
           d="m 19.730466,24.329765 c -3.341903,0.760766 -4.822155,7.036997 -3.641666,12.22268 1.18051,5.185684 6.101076,9.762377 8.521061,9.211478 2.419975,-0.550899 5.210019,-6.398041 3.97705,-11.814198 -1.232958,-5.41616 -6.551708,-10.144627 -8.856445,-9.61996 z"
           id="path8-8" />
        <path
           style="fill:#6593a2;stroke-width:34.4297;stroke-linecap:round"
           d="m 57.650456,25.90866 c 3.495173,1.264889 4.250495,8.217327 2.287752,13.640866 -1.962763,5.423543 -7.869502,9.69239 -10.400485,8.776438 -2.530983,-0.915956 -4.753243,-7.581423 -2.703264,-13.246009 2.05,-5.664589 8.405532,-10.043631 10.815997,-9.171295 z"
           id="path9-4" />
      </g>
      <path
         d="m 35.585655,55.727463 c -1.471708,1.908533 -1.326359,4.781316 0.321653,6.424376 1.670037,1.623593 4.21341,1.416236 5.68384,-0.471546 1.46198,-1.919549 1.317264,-4.802704 -0.341766,-6.43603 -1.659029,-1.633327 -4.212765,-1.426613 -5.663727,0.483206 z"
         style="fill:#2f2f2f;stroke-width:0.958897"
         id="path1-6" />
      <g
         id="g18"
         style="stroke-width:0.958898">
        <path
           class="st4"
           d="m 23.568853,59.484956 c -1.446319,1.640293 -2.750132,1.960517 -3.251641,1.988827 -0.16717,0.0095 -0.307614,-0.03196 -0.421335,-0.124186 -0.493658,-0.356862 -1.974632,-1.427445 -3.134906,-3.108024 -1.409205,-2.070986 -3.112939,-4.815884 -2.317457,-5.403356 0.795484,-0.587474 2.677888,0.953692 6.283852,1.746479 1.750841,0.433865 2.912593,1.445104 3.244885,1.825095 0.332292,0.37999 0.754181,1.737254 -0.403398,3.075165 z"
           clip-path="url(#SVGID_2_)"
           id="path11-1"
           style="fill:#ffffff;fill-opacity:1;stroke-width:0.958896"
           sodipodi:nodetypes="csccscsc" />
        <path
           id="path15"
           clip-path="url(#SVGID_2_)"
           style="fill:#ffffff;fill-opacity:1;stroke-width:0.958896"
           class="st4"
           d="m 4.8452276,57.516236 c -0.3203756,0.05282 -0.4414468,0.633141 -0.3398438,1.583984 0.2680713,2.50872 1.3616217,5.869977 2.7949219,8.892578 1.4863082,3.134386 3.1069073,5.448557 5.9257813,7.470704 1.247355,0.894802 3.664867,0.130319 5.683594,-2.109375 2.018726,-2.239695 1.503644,-5.710466 0.417968,-6.439454 C 18.363403,66.267221 16.702055,66.334051 12.966321,64.500611 9.230588,62.667171 8.190319,62.16639 6.3745245,59.102173 5.6846408,57.93797 5.1656032,57.463421 4.8452276,57.516236 Z"
           sodipodi:nodetypes="sssssssss" />
      </g>
    </g>
  </g>
</svg>
